X:160 
T:Musical Priest (reel), The 
B:CRE3.172 (Sagart an Cheoil)
F:file ID: cre.3/160music_p
R:reel
L:1/8
%Q:180
M:C
K:Bm
A|FBBA BcdB|cBAc ecBA|FBBA BcdB|ceAc B3:|
c|"5"d2dc dfed|(3cBA eA fAec|dcBc defg|afec dBB2|
"9"dcBc dfed|Acec Acec|dcBc defg|afec dBB2||
"13"bBdB bBdB|cBAB ecBA|bBdB bBdB|cBAB cBB2|
"17"bBdB bBdB|cBAB ecBA|(3Bcd dc defg|afec dBBA||HB8||

%%%

